packages/style/src/Icons/CollapseRound.svg

<svg width="20" height="20" viewBox="0 0 20 20" fill="none" xmlns="http://www.w3.org/2000/svg">
<path fill-rule="evenodd" clip-rule="evenodd" d="M4.36386 4.36386C5.85865 2.86906 7.88603 2.0293 9.99999 2.0293C12.1139 2.0293 14.1413 2.86906 15.6361 4.36386C17.1309 5.85865 17.9707 7.88603 17.9707 9.99999C17.9707 12.1139 17.1309 14.1413 15.6361 15.6361C14.1413 17.1309 12.1139 17.9707 9.99999 17.9707C7.88603 17.9707 5.85865 17.1309 4.36386 15.6361C2.86906 14.1413 2.0293 12.1139 2.0293 9.99999C2.0293 7.88603 2.86906 5.85865 4.36386 4.36386ZM9.99999 3.5293C8.28385 3.5293 6.63801 4.21103 5.42452 5.42452C4.21103 6.63801 3.5293 8.28385 3.5293 9.99999C3.5293 11.7161 4.21103 13.362 5.42452 14.5755C6.63801 15.7889 8.28385 16.4707 9.99999 16.4707C11.7161 16.4707 13.362 15.7889 14.5755 14.5755C15.7889 13.362 16.4707 11.7161 16.4707 9.99999C16.4707 8.28385 15.7889 6.63801 14.5755 5.42452C13.362 4.21103 11.7161 3.5293 9.99999 3.5293Z" fill="currentColor"/>
<path fill-rule="evenodd" clip-rule="evenodd" d="M12.8106 5.99431C13.0898 6.30034 13.068 6.77472 12.7619 7.05385L10.6227 9.00508C10.5466 9.07793 10.4574 9.13719 10.3588 9.1792C10.2501 9.22555 10.1328 9.24975 10.0136 9.24975C9.89451 9.24975 9.77715 9.22555 9.66846 9.1792C9.57037 9.13737 9.48158 9.07848 9.40572 9.00618L7.25422 7.05536C6.94737 6.77713 6.92417 6.30282 7.2024 5.99597C7.48063 5.68911 7.95494 5.66591 8.26179 5.94414L10.0124 7.53149L11.7511 5.94562C12.0571 5.66648 12.5315 5.68828 12.8106 5.99431Z" fill="currentColor"/>
<path fill-rule="evenodd" clip-rule="evenodd" d="M7.20223 14.0037C6.92402 13.6969 6.94725 13.2226 7.25413 12.9444L9.40591 10.9935C9.48181 10.9212 9.57061 10.8623 9.66862 10.8205C9.7774 10.7742 9.89476 10.75 10.0138 10.75C10.1329 10.75 10.2502 10.7742 10.359 10.8205C10.4576 10.8626 10.5468 10.9218 10.6229 10.9947L12.7616 12.9459C13.0676 13.2251 13.0893 13.6995 12.8101 14.0055C12.5309 14.3115 12.0566 14.3332 11.7506 14.054L10.0125 12.4683L8.26162 14.0556C7.95475 14.3338 7.48044 14.3106 7.20223 14.0037Z" fill="currentColor"/>
</svg>

<svg xmlns="http://www.w3.org/2000/svg" width="20" height="20" fill="currentColor" viewBox="0 0 20 20">
  <path fill-rule="evenodd" d="M4.343 4.343a8 8 0 1 1 11.314 11.314A8 8 0 0 1 4.343 4.343ZM10 3.506a6.494 6.494 0 1 0 0 12.988 6.494 6.494 0 0 0 0-12.988Z" clip-rule="evenodd"/>
  <path fill-rule="evenodd" d="M12.821 5.98a.753.753 0 0 1-.049 1.063l-2.147 1.958a.885.885 0 0 1-1.221.002l-2.16-1.958a.753.753 0 0 1 1.011-1.116l1.757 1.593 1.745-1.591a.753.753 0 0 1 1.064.049Zm-5.629 8.038a.753.753 0 0 1 .052-1.063l2.16-1.958a.885.885 0 0 1 1.221.001l2.147 1.959a.753.753 0 1 1-1.015 1.112l-1.744-1.592-1.758 1.594a.753.753 0 0 1-1.063-.053Z" clip-rule="evenodd"/>
</svg>
